X: 1
T: Bert Ferguson    [A]
C: Samuel Ian Rothmar Burns (1980)
S: Roaring Jelly collection
S: http://www.thursdaycontra.com/~spuds/tunes/jigs/BertFerg.abc
R: jig
M: 6/8
K: A
AB |\
"A"cBc "E7"E2{A}B | "A"cBc     e2E | "D"F2{A}A "Bm"BAB | "A"cec "E7"BAB |\
"A"cBc "E7"E2{A}B | "A"cBc "A7"e2E | "D"F2{A}A "Bm"BAF | "E7"EAA "A"A :|
|: ce |\
"F#m"f2{a}f fec | "E"efg "A"a2e | "F#m"f2{a}f fec | "Bm"fBB "E7"Bce |\
"F#m"f2{a}f fec | "E"edc "A"cBA | "D"FAA "Bm"BAF | "E7"EAA "A"A :|
